X:4
T:La Bourreio Vieio
O:Valle Varaita
C:Trad.
Z:Transcrit et/ou corrig par Michel BELLON - 2006-06-10
Z:Pour toute observation mailto:galouvielle@free.fr
M:2/4
L:1/8
K:D
A2 | d>d dc/d/ | e2a2 | a/g/f/e/ dc/d/ | ed/c/ BA | dd cd | e2a2 | a/g/f/e/ dc/d/ ef d2 |
A2 d>d | dc/d/ e2 | a2 a/g/f/e/ | dc/d/ ed/c/ | BA dd | cd e2 | a2 a/g/f/e/ | dc/d/  ef | d2 d2 |
|: fd df | ag/f/ ee | e/g/f/e/ dc/d/ | ed/c/ BA | fd df | ag/f/ ef/g/ | aa a/g/f/e/ |1 d2d2 :|2 d2A2 |
|!fine! a2 d'2 | d'2
%%footer $D   Galouvielle-MBe 2007 \n--- (Valle Varaita, Italie)
